azure-patterns/svg-circle-cloud.svg

<svg xmlns="http://www.w3.org/2000/svg" viewBox="0 0 96 96">
                                
                            
    <path d="M83.7141 79.9326C90.7659 72.0337 95.2596 61.76 95.8487 50.4758H86.0198C85.4644 59.0484 82.0479 66.8632 76.7295 72.9432L83.7141 79.9326Z" fill="#0078D4"></path>
    <path d="M12.3198 15.7642C5.15007 23.6968 0.605891 34.0211 0 45.4063H10.2665C10.8387 36.8505 14.2384 29.0695 19.54 22.9895L12.3198 15.7642Z" fill="#50E6FF"></path>
    <path d="M15.9385 83.7558C23.8824 90.8632 34.1993 95.3768 45.5598 95.9326V85.8611C36.9932 85.2884 29.2176 81.8695 23.1418 76.5474L15.9385 83.7558Z" fill="#0078D4"></path>
    <path d="M0 50.4758C0.589061 61.8611 5.13324 72.1853 12.2861 80.1179L19.5063 72.8926C14.2216 66.8126 10.8387 59.0316 10.2665 50.4758H0Z" fill="#0078D4"></path>
    <path d="M83.6804 15.9495L76.6958 22.9389C82.031 29.0189 85.4475 36.8168 86.0029 45.4063H95.8318C95.2428 34.1053 90.7491 23.8484 83.6804 15.9495Z" fill="#50E6FF"></path>
    <path d="M50.6252 95.899C61.9352 95.2758 72.2185 90.7116 80.0951 83.5874L73.0937 76.5811C67.0011 81.9032 59.1918 85.3053 50.6084 85.8611V95.899H50.6252Z" fill="#0078D4"></path>
    <path d="M50.6255 0.0168457V10.0547C59.1921 10.6105 66.9845 13.9958 73.0771 19.3011L80.0785 12.2947C72.1851 5.18737 61.9186 0.640004 50.6255 0.0168457Z" fill="#50E6FF"></path>
    <path d="M45.5596 0C34.1991 0.555789 23.899 5.05263 15.9551 12.1432L23.1584 19.3516C29.2173 14.0463 36.9929 10.6442 45.5427 10.0547V0H45.5596Z" fill="#50E6FF"></path>
    <path d="M73.5818 51.4358C73.5986 51.3179 73.6323 51.2 73.6491 51.0989C73.7837 50.3916 73.8511 49.6674 73.8511 48.9263C73.8511 42.5432 68.6842 37.3726 62.3055 37.3726C61.4135 37.3726 60.5551 37.4737 59.7304 37.6758C57.0881 33.5158 52.4598 30.7705 47.175 30.7705C38.9787 30.7705 32.3307 37.4232 32.3307 45.6253C32.3307 45.8274 32.3307 46.0295 32.3476 46.2316C31.607 45.9789 30.7992 45.8442 29.9577 45.8442C25.9184 45.8442 22.6533 49.1116 22.6533 53.1537C22.6533 56.9432 25.5481 60.0589 29.234 60.4295L62.3055 60.4968C66.6477 60.4968 70.4177 58.1053 72.4037 54.5684C72.4542 54.4674 72.5215 54.3663 72.572 54.2653C72.8749 53.6253 73.3125 52.6653 73.5818 51.4358Z" fill="#50E6FF"></path>
</svg>

<svg xmlns="http://www.w3.org/2000/svg" viewBox="0 0 96 96"><path d="M83.714 79.933c7.052-7.9 11.546-18.173 12.135-29.457h-9.83a37.797 37.797 0 0 1-9.29 22.467l6.985 6.99z" fill="#0078D4"/><path d="M12.32 15.764A47.876 47.876 0 0 0 0 45.406h10.267A37.887 37.887 0 0 1 19.54 22.99l-7.22-7.226z" fill="#50E6FF"/><path d="M15.938 83.756c7.944 7.107 18.261 11.62 29.622 12.177V85.86c-8.567-.573-16.342-3.992-22.418-9.314l-7.204 7.209zM0 50.476c.59 11.385 5.133 21.71 12.286 29.642l7.22-7.225a37.957 37.957 0 0 1-9.24-22.417H0z" fill="#0078D4"/><path d="M83.68 15.95l-6.984 6.989a37.668 37.668 0 0 1 9.307 22.467h9.829c-.59-11.3-5.083-21.558-12.152-29.456z" fill="#50E6FF"/><path d="M50.625 95.899c11.31-.623 21.594-5.187 29.47-12.312l-7.001-7.006a37.821 37.821 0 0 1-22.486 9.28V95.9h.017z" fill="#0078D4"/><path d="M50.626.017v10.038A37.838 37.838 0 0 1 73.077 19.3l7.002-7.006C72.184 5.187 61.919.64 50.626.017zM45.56 0C34.2.556 23.899 5.053 15.955 12.143l7.203 7.209a37.863 37.863 0 0 1 22.385-9.297V0h.017zM73.582 51.436c.017-.118.05-.236.067-.337.135-.707.202-1.432.202-2.173 0-6.383-5.167-11.553-11.545-11.553-.892 0-1.75.1-2.576.303-2.642-4.16-7.27-6.906-12.555-6.906-8.196 0-14.844 6.653-14.844 14.855 0 .202 0 .404.017.607a7.404 7.404 0 0 0-2.39-.388 7.3 7.3 0 0 0-7.305 7.31c0 3.79 2.895 6.905 6.581 7.275l33.072.068c4.342 0 8.112-2.392 10.098-5.929.05-.1.118-.202.168-.303.303-.64.74-1.6 1.01-2.83z" fill="#50E6FF"/></svg>
